openmetadata-ui/src/main/resources/ui/src/assets/svg/table-grey.svg

<svg width="16" height="16" viewBox="0 0 16 16" fill="none" xmlns="http://www.w3.org/2000/svg">
<path d="M7.57137 14.8499H5.94289V12.025H10.057V14.8499H7.94246H7.57137ZM14.9105 1.58363V3.97497H1.08945V1.58363C1.08945 1.32594 1.26995 1.15014 1.45215 1.15014H3.7879H4.15899H14.5479C14.7301 1.15014 14.9105 1.32594 14.9105 1.58363ZM15.65 1.58363C15.65 0.922114 15.1734 0.35 14.5479 0.35H4.15899H3.7879H1.45215C0.826632 0.35 0.35 0.922114 0.35 1.58363V14.0362C0.35 14.9074 0.97649 15.65 1.78616 15.65H7.57137H7.94246H14.2138C15.0235 15.65 15.65 14.9074 15.65 14.0362L15.65 1.58363ZM1.08945 8.40009H5.20344V11.2249H1.08945V8.40009ZM1.08945 7.59995V4.77515H5.20344V7.59995H1.08945ZM5.94289 4.77515H10.057V7.59995H5.94289V4.77515ZM10.7964 4.77515H14.9105V7.59995H10.7964V4.77515ZM14.9105 8.40009V11.2249H10.7964V8.40009H14.9105ZM5.20344 14.8499H1.78616C1.41978 14.8499 1.08945 14.5036 1.08945 14.0362V12.0251H5.20344V14.8499ZM5.94289 11.2249V8.40009H10.057V11.2249H5.94289ZM14.2138 14.8499H10.7964V12.0251H14.9105V14.0362C14.9105 14.5036 14.5802 14.8499 14.2138 14.8499Z" fill="#37352F" stroke="#37352F" stroke-width="0.3"/>
</svg>

<svg xmlns="http://www.w3.org/2000/svg" width="16" height="16" fill="currentColor"><path stroke="currentColor" stroke-width=".3" d="M7.571 14.85H5.943v-2.825h4.114v2.825H7.572Zm7.34-13.266v2.391H1.089V1.584c0-.258.18-.434.363-.434h13.096c.182 0 .363.176.363.434Zm.739 0c0-.662-.477-1.234-1.102-1.234H1.452C.827.35.35.922.35 1.584v12.452c0 .871.626 1.614 1.436 1.614h12.428c.81 0 1.436-.743 1.436-1.614V1.584ZM1.09 8.4h4.113v2.825H1.09V8.4Zm0-.8V4.775h4.113V7.6H1.09Zm4.853-2.825h4.114V7.6H5.943V4.775Zm4.853 0h4.115V7.6h-4.115V4.775ZM14.911 8.4v2.825h-4.115V8.4h4.115Zm-9.708 6.45H1.786c-.366 0-.697-.346-.697-.814v-2.01h4.114v2.824Zm.74-3.625V8.4h4.114v2.825H5.943Zm8.27 3.625h-3.417v-2.825h4.115v2.011c0 .468-.33.814-.697.814Z"/></svg>
